X:1
T:Title
%%score { ( 1 3 ) | ( 2 4 ) }
L:1/8
Q:1/4=94
M:4/4
K:Eb
V:1 treble nm="Grand Piano"
V:3 treble 
V:2 bass 
V:4 bass 
V:1
 E>B, E>[B,DF] [B,EG]>[B,DF] [B,EG]>[B,FA] | [EGB]2 [EAc]2 [EGB]4 | %2
w: Powell~G.~Fithian * * * * * * *||
 F>C F>[C=EG] [CFA]>[CEG] [CFA]>[_EGB] | z4 B2 z2 | [Ge]>[Ge] [Bd]>[Ac] [GB]3 [GB] | %5
w: |||
 c>c A>c [EGB]4 | F>G =A>B c>e d>c | B2 c2 d4 | [Ge]>[Ge] [Ae]>[Ae] [Ge]3 [GB] | c>A e>c [GB]4 | %10
w: |||||
 [Ge]>[Ge] [Ae]>[Ae] [Ge]3 G | B>B A>G F4 | G>G G>[B,FA] [B,GB]3 [B,EG] | %13
w: |||
 [A,EA]>[B,EG] [A,EA]>[_DEB] [CEc]4 | d>d c>B e>B B>A | G2 [DF]2 E4 |] %16
w: |||
V:2
 E,>B,, E,>B,, E,>B,, E,>E, | E,2 E,2 E,4 | F,>C, F,>C, F,>C, F,>E, | A,2 F,2 z2 A2 | %4
 [E,E]>[E,E] [E,E]>[E,E] [E,E]3 [E,E] | [A,EA]>[A,EA] [A,C]>[A,EA][K:bass] E,4 | %6
 F,>G, =A,>B, C>[F,G] [F,G,F]>[F,A,E] | [B,D]2 [B,E=A]2 [B,F_A]4 | %8
 [E,E]>[E,B,] [E,C]>[E,C] [E,B,]3 [E,E] | [A,EA]>[A,C] [A,CA]>[A,EA][K:bass] [E,E]4 | %10
 [E,E]>[E,B,] [E,C]>[E,C] [E,B,]3 [E,B,E] | [G,B,E]>[G,C=E] [F,CF]>[=A,C_E] [B,D]4 | %12
 [E,B,E]>[E,B,E] [E,B,E]>E, E,3 _D, | C,>_D, C,>G,, A,,4 | %14
 [A,B,F]>[A,B,F] [A,DF]>[A,DF] [G,B,E]>[K:bass][G,B,E] [G,C=E]>[F,CF] | [B,E]2 [B,,A,]2 [E,G,]4 |] %16
V:3
 x8 | x8 | x8 | [EAc]2 [F=Ae]2 [Fd]4 | x8 | x8 | x8 | x8 | x8 | x8 | x8 | x8 | x8 | x8 | x8 | x8 |] %16
V:4
 x8 | x8 | x8 | z4 B,4 | x8 | x4[K:bass] x4 | x8 | x8 | x8 | x4[K:bass] x4 | x8 | x8 | x8 | x8 | %14
 x11/2[K:bass] x5/2 | x8 |] %16

